X: 639
T: Walter Bulwer’s No 1
B: good tune book
B: tunes
M:2/4
R: polka
Q: 1/4=100
K:Dmajor
V:1 
|:Ad dc/d/|eB B2|c/d/e c/d/e|fd d>B|
 Ad dc/d/|eB B2|c/d/e AB/c/|dd d2:|
 |:ee f2|ee c2|dd B/c/d|ee c/d/e/f/|
 ee f2|ee c2|dd B/d/c/B/|Ac A2:|
 |:Ad dc/d/|eB B2|c/d/e c/d/e|fd d>B|
 Ad dc/d/|eB B2|c/d/e AB/c/|dd d2:|
 K: Gmaj
 |:B2 Bc|d2 de|d2 d>d|dc c2|
 A2 AB|c2 cd|c2 c>d|cB B2|
 B2 Bc|d2 de|dd gg/d/|fe e>e|
 ee f>e|ed B>e|ed cA|1 GF ED:|2 G2 G2||
% abcbook-tune_id 63dce8e7eec2bcae8dcb7747
% abcbook-tune_composer_id 
% abcbook-link-0 https://www.youtube.com/watch?v=g3thYiEW-jE
% abcbook-link-end-at-0 115
% abcbook-boost 0
% abcbook-difficulty 0
% abcbook-tags good tune book
% abcbook-tablature 
% abcbook-transpose 
% abcbook-tuning 
% abcbook-lastupdated 1675482163684
% abcbook-soundfonts 
% abcbook-repeats 1


